X: 16076
T: Green Fields Of Rossbeigh, The
R: reel
M: 4/4
K: Edorian
|:BE ~E2 BAFB|ABde fded|BE ~E2 BAFA|BFAF E2dc|
B2 Bd BAFB|ABde fded|B2AF EFGA|BFAF E2 FA:|
|:(3B^cd ef g2 fe|dB~B2 dBAd|(3B^cd ef g2 fe|dBAF E2 ef|
g2 ga gfeg|f2 fg fedB|ABde fded|B2AF E4:|

